icons/plexis/48/steam_icon_22000.svg

<svg viewBox="0 0 48 48" xmlns="http://www.w3.org/2000/svg" xmlns:xlink="http://www.w3.org/1999/xlink">
  <linearGradient id="a" gradientTransform="matrix(0 -1 1 0 -.0000015 47.999998)" gradientUnits="userSpaceOnUse" x1="1" x2="47">
    <stop offset="0" stop-color="#e4e4e4"/>
    <stop offset="1" stop-color="#eee"/>
  </linearGradient>
  <path d="m47 24c0 22.703-.297 23-23 23-22.703 0-23-.297-23-23 0-22.703.297-23 23-23 22.703 0 23 .297 23 23z" fill="url(#a)"/>
  <g opacity=".1" transform="translate(1 1)">
    <path d="m22.17 16.473c-.02 2.785-2.324 5.03-5.18 5.03-2.848-.008-5.145-2.262-5.145-5.05 0-2.781 2.305-5.04 5.145-5.04 2.855-.008 5.16 2.242 5.18 5.02"/>
    <path d="m35.11 17.04c-.012 3.098-2.539 5.598-5.645 5.594-3.109-.008-5.625-2.52-5.625-5.613 0-3.098 2.516-5.609 5.625-5.613 3.105-.008 5.633 2.492 5.645 5.59"/>
    <path d="m24.01 11c-1.691 0-3.297.328-4.773.914-.773-.445-1.668-.715-2.621-.715-2.91 0-5.285 2.375-5.285 5.289 0 .922.242 1.785.66 2.539-.641 1.539-.992 3.215-.992 4.98 0 7.172 5.836 12.988 13.01 12.988 7.172 0 12.988-5.816 12.988-12.988 0-2.141-.559-4.141-1.473-5.918.039-.285.074-.57.074-.867 0-3.398-2.773-6.176-6.176-6.176-.742 0-1.445.164-2.105.41-.008-.004-.02.004-.027 0-.027-.02-.043-.043-.078-.051-1.02-.258-2.09-.406-3.203-.406"/>
  </g>
  <path d="m24.01 11c-1.691 0-3.297.328-4.773.914-.773-.445-1.668-.715-2.621-.715-2.91 0-5.285 2.375-5.285 5.289 0 .922.242 1.785.66 2.539-.641 1.539-.992 3.215-.992 4.98 0 7.172 5.836 12.988 13.01 12.988 7.172 0 12.988-5.816 12.988-12.988 0-2.141-.559-4.141-1.473-5.918.039-.285.074-.57.074-.867 0-3.398-2.773-6.176-6.176-6.176-.742 0-1.445.164-2.105.41-.008-.004-.02.004-.027 0-.027-.02-.043-.043-.078-.051-1.02-.258-2.09-.406-3.203-.406" fill="#2d2d2d"/>
  <path d="m17.5 13a4.5 4.5 0 0 0-4.5 4.5 4.5 4.5 0 0 0  4.5 4.5 4.5 4.5 0 0 0  4.5-4.5 4.5 4.5 0 0 0-4.5-4.5zm13.5 0a5 5 0 0 0-5 5 5 5 0 0 0  5 5 5 5 0 0 0  4.906-4.057c-.124-.286-.241-.577-.383-.853.039-.285.075-.57.075-.867 0-.574-.085-1.133-.228-1.657a5 5 0 0 0-4.37-2.566z" opacity=".1"/>
  <circle cx="16.5" cy="16.5" fill="#f9f9f9" r="4.5"/>
  <circle cx="30" cy="17" fill="#f9f9f9" r="5"/>
  <path d="m16.996 14c-1.101 0-1.996.891-1.996 1.996 0 1.105.891 2 1.996 2 1.102 0 2-.895 2-2 0-1.101-.895-1.996-2-1.996z" fill="#02abc8"/>
  <path d="m30.492 12.996c-1.379 0-2.5 1.121-2.5 2.504 0 1.379 1.121 2.5 2.5 2.5 1.383 0 2.504-1.121 2.504-2.5 0-1.383-1.121-2.504-2.504-2.504z" fill="#02abc8"/>
</svg>

<svg xmlns="http://www.w3.org/2000/svg" viewBox="0 0 48 48">
 <defs>
  <linearGradient id="linearGradient3764" x1="1" x2="47" gradientUnits="userSpaceOnUse" gradientTransform="matrix(0,-1,1,0,-1.5e-6,47.999998)">
   <stop style="stop-color:#e4e4e4;stop-opacity:1"/>
   <stop offset="1" style="stop-color:#eee;stop-opacity:1"/>
  </linearGradient>
 </defs>
 <g>
  
  
  
 </g>
 <g>
  <path d="m 47,24 C 47,46.703 46.703,47 24,47 1.297,47 1,46.703 1,24 1,1.297 1.297,1 24,1 46.703,1 47,1.297 47,24 z" style="fill:url(#linearGradient3764);fill-opacity:1"/>
 </g>
 <g>
  <g>
   <g transform="translate(1,1)">
    <g style="opacity:0.1">
     <!-- color: #eeeeee -->
     <g>
      <path d="m 22.17 16.473 c -0.02 2.785 -2.324 5.03 -5.18 5.03 c -2.848 -0.008 -5.145 -2.262 -5.145 -5.05 c 0 -2.781 2.305 -5.04 5.145 -5.04 c 2.855 -0.008 5.16 2.242 5.18 5.02" style="fill:#000;fill-opacity:1;stroke:none;fill-rule:nonzero"/>
      <path d="m 35.11 17.04 c -0.012 3.098 -2.539 5.598 -5.645 5.594 c -3.109 -0.008 -5.625 -2.52 -5.625 -5.613 c 0 -3.098 2.516 -5.609 5.625 -5.613 c 3.105 -0.008 5.633 2.492 5.645 5.59" style="fill:#000;fill-opacity:1;stroke:none;fill-rule:nonzero"/>
      <path d="m 24.01 11 c -1.691 0 -3.297 0.328 -4.773 0.914 -0.773 -0.445 -1.668 -0.715 -2.621 -0.715 -2.91 0 -5.285 2.375 -5.285 5.289 0 0.922 0.242 1.785 0.66 2.539 -0.641 1.539 -0.992 3.215 -0.992 4.98 0 7.172 5.836 12.988 13.01 12.988 7.172 0 12.988 -5.816 12.988 -12.988 0 -2.141 -0.559 -4.141 -1.473 -5.918 0.039 -0.285 0.074 -0.57 0.074 -0.867 0 -3.398 -2.773 -6.176 -6.176 -6.176 -0.742 0 -1.445 0.164 -2.105 0.41 -0.008 -0.004 -0.02 0.004 -0.027 0 -0.027 -0.02 -0.043 -0.043 -0.078 -0.051 -1.02 -0.258 -2.09 -0.406 -3.203 -0.406" style="fill:#000;fill-opacity:1;stroke:none;fill-rule:nonzero"/>
     </g>
    </g>
   </g>
  </g>
 </g>
 <g>
  <!-- color: #eeeeee -->
  <g>
   <path d="m 24.01 11 c -1.691 0 -3.297 0.328 -4.773 0.914 -0.773 -0.445 -1.668 -0.715 -2.621 -0.715 -2.91 0 -5.285 2.375 -5.285 5.289 0 0.922 0.242 1.785 0.66 2.539 -0.641 1.539 -0.992 3.215 -0.992 4.98 0 7.172 5.836 12.988 13.01 12.988 7.172 0 12.988 -5.816 12.988 -12.988 0 -2.141 -0.559 -4.141 -1.473 -5.918 0.039 -0.285 0.074 -0.57 0.074 -0.867 0 -3.398 -2.773 -6.176 -6.176 -6.176 -0.742 0 -1.445 0.164 -2.105 0.41 -0.008 -0.004 -0.02 0.004 -0.027 0 -0.027 -0.02 -0.043 -0.043 -0.078 -0.051 -1.02 -0.258 -2.09 -0.406 -3.203 -0.406" style="fill:#2d2d2d;fill-opacity:1;stroke:none;fill-rule:nonzero"/>
   <path d="M 17.5 13 A 4.5 4.5 0 0 0 13 17.5 A 4.5 4.5 0 0 0 17.5 22 A 4.5 4.5 0 0 0 22 17.5 A 4.5 4.5 0 0 0 17.5 13 z M 31 13 A 5 5 0 0 0 26 18 A 5 5 0 0 0 31 23 A 5 5 0 0 0 35.906 18.943 C 35.782 18.657 35.665 18.366 35.523 18.09 C 35.562 17.805 35.598 17.52 35.598 17.223 C 35.598 16.649 35.513 16.09 35.37 15.566 A 5 5 0 0 0 31 13 z" style="fill:#000;opacity:0.1;fill-opacity:1;stroke:none;fill-rule:nonzero"/>
  </g>
 </g>
 <circle cx="16.5" cy="16.5" r="4.5" style="fill:#f9f9f9;opacity:1;fill-opacity:1;stroke:none"/>
 <g>
  
 </g>
 <circle cx="30" cy="17" r="5" style="fill:#f9f9f9;opacity:1;fill-opacity:1;stroke:none"/>
 <path d="m 16.996 14 c -1.101 0 -1.996 0.891 -1.996 1.996 c 0 1.105 0.891 2 1.996 2 1.102 0 2 -0.895 2 -2 0 -1.101 -0.895 -1.996 -2 -1.996 z" style="fill:#02abc8;fill-opacity:1;stroke:none;fill-rule:nonzero"/>
 <path d="m 30.492 12.996 c -1.379 0 -2.5 1.121 -2.5 2.504 0 1.379 1.121 2.5 2.5 2.5 1.383 0 2.504 -1.121 2.504 -2.5 0 -1.383 -1.121 -2.504 -2.504 -2.504 z" style="fill:#02abc8;fill-opacity:1;stroke:none;fill-rule:nonzero"/>
</svg>
